!!!!SEGMENT: pl-kc--40102-iii-1-saf--002-049_zielenski-mikolaj--communiones-totius-anni-motteto-a-5-in-monte-oliveti.krn
!!!cenid: 16xx:1580
!!!COM: Zieleński, Mikołaj
!!!COM-rismID: pe30013481
!!!CDT: <1611->1611
!!!CNT: Polish
!!!GTL: Communiones totius anni
!!!OTL: Motteto a 5./In monte Oliveti
!!!OMV: 049
!!!PDT: 1611
!!!AGN:
!!!SMS-siglum: PL-Kc
!!!SMS-shelfmark: 40102 III/1 Saf.
!!!SMS-shelfwork: 002-049 G
!!!SMS-variant:
!!!SMS-altvar:
!!!NIFC-rismSourceID: 990069887
!!!NIFC-islandoraID:
!!!URL-pdf-islandora:
!!!URL-scan: https://cyfrowe.mnk.pl/dlibra/publication/24235/edition/23926/content?ref=desc @EN{Scan on The National Museum in Krakow Website} @PL{Skany w portalu Biblioteka Cyfrowa Muzeum Narodowego w Krakowie}
!!!ONB-nifc: UWAGA: str. 71-72. Numer w źródle: 57. Uwaga: W xml metrum 2/1 do źródłowego C| i odpowiednio 3/1 do 3/2
!!!AIN: 5 organ
!!!key:
**kern	**kern	**kern	**kern	**kern
*group1	*group1	*group1	*group1	*group1
*part5	*part4	*part3	*part2	*part1
*staff5	*staff4	*staff3	*staff2	*staff1
*I""Organo	*I""Organo	*I""Organo	*I""Organo	*I""Organo
*I''org	*I''org	*I''org	*I''org	*I''org
*Iorgan	*Iorgan	*Iorgan	*Iorgan	*Iorgan
*ICklav	*ICklav	*ICklav	*ICklav	*ICklav
*clefF3	*clefC4	*clefC3	*clefC1	*clefG2
*k[]	*k[]	*k[]	*k[]	*k[]
*a:	*a:	*a:	*a:	*a:
*M2/1	*M2/1	*M2/1	*M2/1	*M2/1
*met(C|)	*met(C|)	*met(C|)	*met(C|)	*met(C|)
=1	=1	=1	=1	=1
!	!	!	!	!LO:TX:b:t=In monte Oliveti.
!	!	!	!	!LO:TX:a:t=57.  Motteto. à 5.
00r	00r	0r	1r	1e
.	.	.	1e	2.ee\
.	.	.	.	4dd\
=2-	=2-	=2-	=2-	=2-
.	.	1A	2.ee\	4cc\
.	.	.	.	4b/
.	.	.	.	1a
.	.	.	4dd\	.
.	.	2.a\	4cc\	.
.	.	.	4b\	.
.	.	.	[<2a\	[<2cc\
.	.	4g\	.	.
=3	=3	=3	=3	=3
00r	0r	4f\	2a\]	2cc\]
.	.	4e\	.	.
.	.	2d\	2b\	1dd
.	.	1.e	2g#X/	.
.	.	.	1a\	2cc\
=4-	=4-	=4-	=4-	=4-
*	*	*	*	*lig
*	*	*	*	*col
.	1E	.	.	1b
.	.	2e\	2g#X/	.
.	2.e\	2A/	2a\	2.cc\
*	*	*	*	*Xlig
*	*	*	*	*Xcol
.	.	2A/	[2e/	.
.	4d\	.	.	4dd\
=5	=5	=5	=5	=5
1AA	4c\	1A	2e/]	2ee\
.	4B\	.	.	.
.	2A/	.	2.ee\	2cc\
2.A\	2c\	2r	.	2a/
.	.	.	4dd\	.
.	2c\	2e\	4cc\	2.aa\
4G\	.	.	4b\	.
=6-	=6-	=6-	=6-	=6-
4F/	2A/	2.a\	2cc\	.
4E/	.	.	.	4gg\
2D/	2A/	.	2dd\	4ff\
.	.	4g\	.	4ee\
2D/	1d	4f\	1a	4dd\
.	.	4e\	.	4cc\
2F/	.	4d\	.	[<2dd\
.	.	4f\	.	.
=7	=7	=7	=7	=7
2G\	2r	2e\	2b-X\	2dd\]
2A\	2A/	2e\	2a\	2cc#X\
*	*	*	*lig	*
1D	2.d\	1.f	1a	2dd\
.	.	.	.	1a/
.	4c\	.	.	.
=8-	=8-	=8-	=8-	=8-
1r	4B-X\	.	1d	.
.	4A/	.	.	.
.	2B-X\	4e\	.	2g/
.	.	4d\	.	.
*	*	*	*Xlig	*
2r	2A/	4c\	2r	1a
.	.	4d\	.	.
2AA/	[y2c\	[y2e\	2a\	.
=9	=9	=9	=9	=9
!	!LO:N:xstem:cue	!LO:N:xstem:cue	!	!
2.A\	4c\]	4e]	1cc	0r
.	4d\	4d\	.	.
.	2e\	4c/	.	.
4G\	.	4B/	.	.
4F/	2f\	2A/	2cc\	.
4E/	.	.	.	.
2D/	2f\	2a\	2dd\	.
=10-	=10-	=10-	=10-	=10-
2G\	1d	2.g\	1b-X	1r
2G\	.	.	.	.
.	.	4f\	.	.
2A\	2r	4e\	1a	2r
.	.	4d\	.	.
2A\	2A/	[2c/	.	2ee\
=11	=11	=11	=11	=11
1E	2.e\	2c/]	2r	1gg
.	.	2B/	2e/	.
.	4d\	.	.	.
0r	4c\	1c	2.ee\	2gg\
.	4B\	.	.	.
.	1A\	.	.	2aa\
.	.	.	4dd\	.
=12-	=12-	=12-	=12-	=12-
*	*	*	*	*lig
.	.	0r	4cc\	1ff
.	.	.	4b\	.
.	2d\	.	2.a\	.
2r	2c\	.	.	1ee
.	.	.	8g#X/	.
.	.	.	8f/	.
2E/	[y2B\	.	4g#\	.
.	.	.	4a\	.
*	*	*	*	*Xlig
!!LO:LB:g=original
=13	=13	=13	=13	=13
!	!LO:N:xstem:cue	!	!	!
1G	4B\]	0r	2.b\	1dd
.	4A/	.	.	.
.	4B\	.	.	.
.	4c\	.	4a\	.
2G\	4d\	.	4b\	1r
.	4B\	.	4g/	.
2A\	1e\	.	1cc\	.
=14-	=14-	=14-	=14-	=14-
1F	.	2r	.	0r
.	2d\	2A/	2a\	.
2E/	1e	1c	2g/	.
2A\	.	.	4f/	.
.	.	.	4e/	.
=15	=15	=15	=15	=15
4A\	1r	2c/	4f/	00r
4G\	.	.	4e/	.
4F/	.	2d\	1a	.
4E/	.	.	.	.
2D/	2r	1B	.	.
1E/	2E/	.	1g\	.
=16-	=16-	=16-	=16-	=16-
.	1G	2B/	.	.
1C	.	2.e\	2g/	.
.	2G/	.	1cc	.
.	.	8d\	.	.
.	.	8e\	.	.
2AA/	2A/	4f\	.	.
.	.	[<4e\	.	.
=17	=17	=17	=17	=17
1D	1F	4e\]	2r	1r
.	.	8d\	.	.
.	.	8c\	.	.
.	.	2d\	2a\	.
1AA	2E/	2.e\	1cc	2r
.	1c\	.	.	2ee\
.	.	4d\	.	.
=18-	=18-	=18-	=18-	=18-
0r	.	4e\	2cc\	1gg
.	.	4c/	.	.
.	2G/	2d\	1b	.
.	2E/	2d\	.	2gg\
.	2F/	[2c/	[<2a\	2aa\
=19	=19	=19	=19	=19
0r	1D	2c/]	2a\]	1ff
.	.	2B/	2d/	.
.	1C	1c	1g	1ee
=20-	=20-	=20-	=20-	=20-
1AA	1c	1e	2r	1ee
.	.	.	1a	.
1E	1B	1e	.	1ee
.	.	.	2g/	.
=21	=21	=21	=21	=21
*	*	*lig	*	*
00r	00r	1d	2a\	1ff
.	.	.	1dd	.
.	.	1a	.	1.ee
.	.	.	2cc#X\	.
*	*	*Xlig	*	*
=22-	=22-	=22-	=22-	=22-
.	.	2.e\	2r	.
.	.	.	2ee\	2gg\
.	.	4e\	.	.
.	.	4g\	4dd\	4ff\
.	.	4e\	4ee\	4gg\
.	.	4f\	4a\	4ff\
.	.	4d\	4b\	4ff\
=23	=23	=23	=23	=23
2r	2r	2c/	2.cc\	1ee
2C/	2e\	2g\	.	.
.	.	.	4cc\	.
4G\	4d\	4g\	4b\	1r
4E/	4e\	4g\	4cc\	.
4F/	4c\	4f\	4a\	.
4D/	4d\	4f\	4b\	.
=24-	=24-	=24-	=24-	=24-
2C/	2e\	2g\	2cc\	2r
2C/	2c\	2g\	2cc\	2ee\
4G\	4d\	4g\	4b\	4dd\
4E/	4e\	4g\	4cc\	4gg\
4A\	4e\	4a\	4cc\	4ee\
*custos:G	*	*custos:d	*custos:b	*custos:gg
4A\	8d\	4a\	4a\	4ff#X\
.	8c\	.	.	.
!!LO:PB:g=original
=25	=25	=25	=25	=25
2G\	2d\	4d\	4b\	4gg\
.	.	4.g\	4.b\	4.dd\
4r	4r	.	.	.
.	.	8g\	8b\	8dd\
4.D/	4.d\	4f\	4a\	4dd\
.	.	2a\	2dd\	2ff\
8D/	8d\	.	.	.
4D/	4A/	.	.	.
2A\	4r	4a\	2cc\	2ee\
.	4.c\	4.e\	.	.
=26-	=26-	=26-	=26-	=26-
2E/	.	.	4.g/	4r
.	8c\	8e\	.	.
.	4c\	4e\	.	4.gg\
.	.	.	8g/	.
4.G\	2B\	2.d\	2.b\	.
.	.	.	.	8gg\
.	.	.	.	4gg\
8G\	.	.	.	.
4G\	4B\	.	.	2dd\
2D/	4.A/	2f\	2dd\	.
.	.	.	.	[y2ff\
.	8A/	.	.	.
4F/	4A/	[<4a\	[<4cc\	.
=27	=27	=27	=27	=27
!	!	!	!	!LO:N:xstem:cue
4F/	2c\	4a\]	4cc\]	4ff\]
4C/	.	2g\	4cc\	2ee\
4.E/	4B\	.	4g/	.
.	2e\	4g\	2cc\	2gg\
8F/	.	.	.	.
0G	.	2.g\	.	.
.	8c\	.	2b\	2dd\
.	8B\	.	.	.
.	8A/	.	.	.
.	8G/	.	.	.
.	2c\	2e\	2g/	4ee\
=28-	=28-	=28-	=28-	=28-
.	.	.	.	4b/
.	4B\	4d\	2dd\	4g/
.	2e\	4B/	.	1gg
.	.	4c/	2cc\	.
1G	1d	2d\	.	.
.	.	.	8b\	.
.	.	.	8a\	.
.	.	[<2g\	2b\	2dd\
=29	=29	=29	=29	=29
1C	2c\	2g\]	2cc\	2ee\
.	1c	1g	1cc	1ee
1r	.	.	.	.
.	2c\	2g\	2cc\	2ee\
=30-	=30-	=30-	=30-	=30-
1.F	1c	1a	1cc	1ff
.	[<1c	1f	1a	1cc
2F/	.	.	.	.
=31	=31	=31	=31	=31
1C	1c]	1g	1cc	1ee
*	*	*lig	*lig	*
2D/	2F/	1f	1a	2dd\
2D/	1A\	.	.	2a/
=32-	=32-	=32-	=32-	=32-
1.BB	.	1d	1dd	1.b
.	4G#X/	.	.	.
.	4F/	.	.	.
*	*	*Xlig	*Xlig	*
.	2G#/	1B	1d	.
2BB/	2G#/	.	.	2dd\
=33	=33	=33	=33	=33
1AA	2A/	1e	0a	2cc\
.	1c	.	.	1ee
1.A	.	1r	.	.
.	2B\	.	.	2dd\
=34-	=34-	=34-	=34-	=34-
.	1A	1.e	1r	2cc\
2G\	.	.	.	2b/
1F	2.A/	.	1a	1a
.	.	2d\	.	.
.	4G/	.	.	.
=35	=35	=35	=35	=35
2F/	4A/	2c/	2a\	1cc
.	4G/	.	.	.
2E/	2F/	2G/	2g/	.
*lig	*	*	*	*lig
1D	4F/	1.A	2f/	1dd
.	4G/	.	.	.
.	4A/	.	2f/	.
.	4B\	.	.	.
=36-	=36-	=36-	=36-	=36-
1AA	4c\	.	1e	1cc
.	4B\	.	.	.
.	4c\	[<2a\	.	.
.	4A/	.	.	.
*Xlig	*	*	*	*Xlig
[>1E	1B	2a\]	[y1e	1b
.	.	4g\	.	.
.	.	4f\	.	.
=37	=37	=37	=37	=37
*	*lig	*	*	*
!	!	!	!LO:N:xstem:cue:vis=4	!
0E]	1B	1g	2e/]	1r
.	.	.	1ee	.
.	1G	1r	.	2r
.	.	.	2cc\	1ee\
*	*Xlig	*	*	*
=38-	=38-	=38-	=38-	=38-
0r	[<0A	2r	2cc\	.
.	.	1e	1g	2cc\
.	.	.	.	2cc\
.	.	2d\	2f/	2a/
=39	=39	=39	=39	=39
00r	0A]	2d\	2e/	2a/
.	.	2c/	2e/	1ee
.	.	2f\	1a	.
.	.	1f\	.	1dd\
=40-	=40-	=40-	=40-	=40-
.	2r	.	1a	.
.	1A	4e\	.	4cc\
.	.	4d\	.	4b/
.	.	2e\	2r	2cc\
.	2F/	4A/	[<2a\	2dd\
.	.	4B/	.	.
=41	=41	=41	=41	=41
1r	2F/	4c/	2a\]	1a
.	.	4A/	.	.
.	2D/	2.d\	2f/	.
2r	2D/	.	2f/	1r
.	.	4c/	.	.
1E/	4G/	2B/	1e/	.
.	4A/	.	.	.
=42-	=42-	=42-	=42-	=42-
.	4B\	1g	.	0r
.	4G/	.	.	.
2C/	2c\	.	1ee	.
2C/	2G/	1e	.	.
2AA/	4A/	.	2cc\	.
.	4B\	.	.	.
=43	=43	=43	=43	=43
1A	4c\	2r	2cc\	0r
.	4d\	.	.	.
.	1e	1c	1a	.
1F	.	.	.	.
.	2d\	2A/	2dd\	.
=44-	=44-	=44-	=44-	=44-
1E	1e	2A/	2cc\	2r
.	.	1G	1b	1ee
1E	2r	.	.	.
.	[<2e\	4E/	[2g/	2cc\
.	.	4F/	.	.
=45	=45	=45	=45	=45
0.E	2e\]	4G/	2g/]	2cc\
.	.	4A/	.	.
.	2d\	2B/	2f/	1b
.	2c\	2E/	0.e	.
.	2c\	2.e\	.	1a/
=46-	=46-	=46-	=46-	=46-
.	1B	.	.	.
.	.	4d\	.	.
.	.	2B/	.	2g#X/
2AA/	2.A/	2.c#X/	.	1a
[2A\	.	.	.	.
.	4B\	4d\	.	.
=47	=47	=47	=47	=47
!	!	!	!	!
2A\]	2c#X\	2e\	[0al	2r
2F/	2d\	2A/	.	1aa
2F/	1A	2c/	.	.
1D/	.	4d\	.	2ff\
.	.	4e\	.	.
=48-	=48-	=48-	=48-	=48-
.	2A/	4f\	0a_	2ff\
.	.	4g\	.	.
2C#X/	2e\	4a\	.	1ee
.	.	4A/	.	.
*	*	*custos:e	*	*
4D/	2.A/	1f	.	.
4E/	.	.	.	.
*	*	*	*	*custos:dd
4F/	.	.	.	2dd\
*custos:A	*custos:c	*	*	*
4D/	4B\	.	.	.
!!LO:LB:g=original
=49	=49	=49	=49	=49
2A\	4c#X\	1e	0a_	2dd\
.	4d\	.	.	.
2AA/	2e\	.	.	2cc#X\
0.D	2d\	2f\	.	4dd\
.	.	.	.	4a/
.	2.f\	2d\	.	2.aa\
=50-	=50-	=50-	=50-	=50-
.	.	2.a\	0a_	.
.	4e\	.	.	4gg\
.	4d\	.	.	4ff\
.	4c#X\	4g\	.	4ee\
.	1.d	1f	.	4dd\
.	.	.	.	4a/
.	.	.	.	2dd\
=51-	=51-	=51-	=51-	=51-
0AAl	.	0el	0a]	0eel
.	4c#X\	.	.	.
.	4B\	.	.	.
.	1c#Xl	.	.	.
==	==	==	==	==
*-	*-	*-	*-	*-
!!!system-decoration: *
!!!RDF**kern: l = terminal long
!!!RDF**kern: > = above
!!!RDF**kern: < = below
!!!ENC: Filip Voros
!!!END: 2021-12-22
!!!EED: Andrzej Borzym
!!!EEV: 2021-12-27
